X: 160
T:Miss McLeod's
M:4/4
L:1/8
R:Reel
K:G
BA|G2BG dGBG|B2 BA BcBA|G2 BG dGBG|AGFG AcBA|
G2 BG dGBG|B2 BA Bc d2|efed Bdef|gedB Ac:|
G2 gf edeg|B2 BA BcBA|G2 gf edeg|a2 ab agef|
g2 gf edeg|B2 BA B3 d|efed|Bdef|gedB Ac:|

